assets/img/index__slide2-3.svg

<svg xmlns="http://www.w3.org/2000/svg" viewBox="0 0 66 66" enable-background="new 0 0 66 66"><style type="text/css">.st0{fill:#262626;}</style><path class="st0" d="M60.1 16.8h-2.7c2-1.6 3.2-4.1 3.2-6.8 0-4.9-4-8.8-8.8-8.8-2.3 0-4.5.9-6.2 2.5l-7.7 7.6c-.8-1.9-2.7-3.3-4.9-3.3s-4.1 1.4-4.9 3.3l-7.7-7.6c-1.7-1.6-3.9-2.5-6.2-2.5-4.9 0-8.8 4-8.8 8.8 0 2.7 1.2 5.2 3.2 6.8h-2.7c-.6 0-1 .5-1 1v13.5c0 .6.5 1 1 1h1.7v31.4c0 .6.5 1 1 1h48.8c.6 0 1-.5 1-1v-31.3h1.7c.6 0 1-.5 1-1v-13.6c0-.5-.4-1-1-1zm-13.1-11.6c1.3-1.3 3-2 4.8-2 3.8 0 6.8 3.1 6.8 6.8 0 3.8-3.1 6.8-6.8 6.8h-13.5v-3.1l8.7-8.5zm-19.8 13.7h4.8v23.4c0 .6.5 1 1 1 .6 0 1-.5 1-1v-23.4h4.7v29.7l-5.2-3.1c-.3-.2-.7-.2-1 0l-5.2 3.1v-29.7zm5.8-8.9c1.8 0 3.3 1.5 3.3 3.3v3.5h-6.6v-3.5c0-1.8 1.5-3.3 3.3-3.3zm-25.6 0c0-3.8 3.1-6.8 6.8-6.8 1.8 0 3.5.7 4.8 2l8.7 8.6v3.1h-13.5c-3.7-.1-6.8-3.1-6.8-6.9zm51.7 20.4h-15.3c-.6 0-1 .5-1 1 0 .6.5 1 1 1h12.6v30.4h-46.8v-30.4h12.6c.6 0 1-.5 1-1 0-.6-.5-1-1-1h-15.3v-11.5h18.3v31.5c0 .4.2.7.5.9.3.2.7.2 1 0l6.2-3.7 6.2 3.7c.2.1.3.1.5.1s.3 0 .5-.1c.3-.2.5-.5.5-.9v-31.5h18.3v11.5zm0 0M14.2 5.2c-2.6 0-4.8 2.1-4.8 4.8 0 .6.5 1 1 1 .6 0 1-.5 1-1 0-1.5 1.2-2.7 2.7-2.7.6 0 1-.5 1-1s-.3-1.1-.9-1.1zm0 0"/></svg>

<?xml version="1.0" encoding="utf-8"?>
<!-- Generator: Adobe Illustrator 19.2.0, SVG Export Plug-In . SVG Version: 6.00 Build 0)  -->
<svg version="1.1" id="Layer_1" xmlns="http://www.w3.org/2000/svg" xmlns:xlink="http://www.w3.org/1999/xlink" x="0px" y="0px"
	 viewBox="0 0 66 66" style="enable-background:new 0 0 66 66;" xml:space="preserve">
<style type="text/css">
	.st0{fill:#262626;}
</style>
<g>
	<path class="st0" d="M60.1,16.8h-2.7c2-1.6,3.2-4.1,3.2-6.8c0-4.9-4-8.8-8.8-8.8c-2.3,0-4.5,0.9-6.2,2.5l-7.7,7.6
		C37.1,9.4,35.2,8,33,8c-2.2,0-4.1,1.4-4.9,3.3l-7.7-7.6c-1.7-1.6-3.9-2.5-6.2-2.5c-4.9,0-8.8,4-8.8,8.8c0,2.7,1.2,5.2,3.2,6.8H5.9
		c-0.6,0-1,0.5-1,1v13.5c0,0.6,0.5,1,1,1h1.7v31.4c0,0.6,0.5,1,1,1h48.8c0.6,0,1-0.5,1-1V32.4h1.7c0.6,0,1-0.5,1-1V17.8
		C61.1,17.3,60.7,16.8,60.1,16.8L60.1,16.8z M47,5.2c1.3-1.3,3-2,4.8-2c3.8,0,6.8,3.1,6.8,6.8c0,3.8-3.1,6.8-6.8,6.8H38.3v-3.1
		L47,5.2z M27.2,18.9H32v23.4c0,0.6,0.5,1,1,1c0.6,0,1-0.5,1-1V18.9h4.7v29.7l-5.2-3.1c-0.3-0.2-0.7-0.2-1,0l-5.2,3.1V18.9z M33,10
		c1.8,0,3.3,1.5,3.3,3.3v3.5h-6.6v-3.5C29.7,11.5,31.2,10,33,10L33,10z M7.4,10c0-3.8,3.1-6.8,6.8-6.8c1.8,0,3.5,0.7,4.8,2l8.7,8.6
		v3.1H14.2C10.5,16.8,7.4,13.8,7.4,10L7.4,10z M59.1,30.4H43.8c-0.6,0-1,0.5-1,1c0,0.6,0.5,1,1,1h12.6v30.4H9.6V32.4h12.6
		c0.6,0,1-0.5,1-1c0-0.6-0.5-1-1-1H6.9V18.9h18.3v31.5c0,0.4,0.2,0.7,0.5,0.9c0.3,0.2,0.7,0.2,1,0l6.2-3.7l6.2,3.7
		c0.2,0.1,0.3,0.1,0.5,0.1c0.2,0,0.3,0,0.5-0.1c0.3-0.2,0.5-0.5,0.5-0.9V18.9h18.3V30.4z M59.1,30.4"/>
	<path class="st0" d="M14.2,5.2c-2.6,0-4.8,2.1-4.8,4.8c0,0.6,0.5,1,1,1c0.6,0,1-0.5,1-1c0-1.5,1.2-2.7,2.7-2.7c0.6,0,1-0.5,1-1
		S14.8,5.2,14.2,5.2L14.2,5.2z M14.2,5.2"/>
</g>
</svg>
